;FLAVOR:Marlin
;TIME:7500
;Filament used: 7.47639m
;Layer height: 0.2
;MINX:82.227
;MINY:77.218
;MINZ:0.24
;MAXX:127.771
;MAXY:132.781
;MAXZ:32.49
;Generated with Cura_SteamEngine 4.4.1
M140 S60
M105
M190 S60
M104 S200
M105
M109 S200
M82 ;absolute extrusion mode
G21 ;metric values
G90 ;absolute positioning
M82 ;set extruder to absolute mode
M107 ;start with the fan off
G28 X0 Y0 ;move X/Y to min endstops
G28 Z0 ;move Z to min endstops
G1 Z15.0 F100 ;move the platform down 15mm
G92 E0 ;zero the extruded length
G1 F200 E3 ;extrude 3mm of feed stock
G92 E0 ;zero the extruded length again
G1 F100
G0 Y20 F100
M117 Printing...
G5
G92 E0
G92 E0
G1 F2400 E-6
;LAYER_COUNT:157
;LAYER:-6
M107
M204 S3000
M205 X10 Y10
G0 F6000 X85.519 Y80.538 Z0.24
M204 S1800
M205 X8 Y8
;TYPE:SUPPORT-INTERFACE
G1 F2400 E0
G1 F1125 X85.736 Y80.327 E0.02416
G1 X85.932 Y80.154 E0.04503
G1 X86.951 Y79.344 E0.14894
G1 X87.155 Y79.197 E0.16901
G1 X87.441 Y79.014 E0.19611
G1 X87.61 Y78.916 E0.21171
G1 X88.685 Y78.369 E0.30799
G1 X88.834 Y78.3 E0.3211
G1 X89.196 Y78.153 E0.35228
G1 X90.108 Y77.838 E0.4293
G1 X90.273 Y77.788 E0.44307
G1 X90.672 Y77.687 E0.47592
G1 X91.58 Y77.521 E0.5496
G1 X91.943 Y77.48 E0.57876
G1 X93.03 Y77.421 E0.66566
G1 X117.126 Y77.427 E2.58911
G1 X118.169 Y77.49 E2.67251
G1 X118.527 Y77.537 E2.70134
G1 X119.471 Y77.718 E2.77806
G1 X119.804 Y77.806 E2.80556
G1 X120.548 Y78.043 E2.86789
G1 X120.748 Y78.115 E2.88486
G1 X120.969 Y78.206 E2.90393
G1 X121.15 Y78.289 E2.91983
G1 X122.374 Y78.909 E3.02935
G1 X122.556 Y79.013 E3.04609
G1 X122.855 Y79.203 E3.07436
G1 X123.025 Y79.324 E3.09102
G1 X124.109 Y80.183 E3.20142
G1 X124.257 Y80.316 E3.21731
G1 X124.502 Y80.556 E3.24469
G1 X124.648 Y80.713 E3.2618
G1 X125.465 Y81.687 E3.36328
G1 X125.6 Y81.864 E3.38105
G1 X125.776 Y82.121 E3.40591
G1 X125.894 Y82.31 E3.4237
G1 X126.538 Y83.472 E3.52975
G1 X126.646 Y83.691 E3.54924
G1 X126.765 Y83.965 E3.57308
G1 X126.856 Y84.208 E3.5938
G1 X127.236 Y85.4 E3.69367
G1 X127.294 Y85.617 E3.7116
G1 X127.358 Y85.911 E3.73561
G1 X127.401 Y86.168 E3.75641
G1 X127.554 Y87.508 E3.86407
G1 X127.569 Y87.823 E3.88925
G1 X127.567 Y95.561 E4.50693
G1 X127.539 Y95.943 E4.5375
G1 X127.509 Y96.13 E4.55262
G1 X127.479 Y96.279 E4.56475
G1 X127.379 Y96.628 E4.59373
G1 X127.316 Y96.793 E4.60783
G1 X127.233 Y96.987 E4.62467
G1 X127.151 Y97.159 E4.63988
G1 X127.06 Y97.329 E4.65528
G1 X126.973 Y97.477 E4.66898
G1 X126.766 Y97.773 E4.69781
G1 X126.716 Y97.833 E4.70405
G1 X126.489 Y98.07 E4.73024
G1 X126.349 Y98.197 E4.74533
G1 X125.882 Y98.677 E4.79879
G1 X125.471 Y99.223 E4.85334
G1 X125.132 Y99.816 E4.90787
G1 X124.872 Y100.446 E4.96227
G1 X124.691 Y101.105 E5.01682
G1 X124.598 Y101.776 E5.0709
G1 X124.582 Y102.184 E5.10349
G1 X124.581 Y107.723 E5.54564
G1 X124.623 Y108.391 E5.59906
G1 X124.752 Y109.062 E5.65361
G1 X124.964 Y109.711 E5.70811
G1 X125.257 Y110.328 E5.76263
G1 X125.625 Y110.903 E5.81712
G1 X126.059 Y111.424 E5.87125
G1 X126.325 Y111.684 E5.90094
G1 X126.5 Y111.846 E5.91998
G1 X126.621 Y111.967 E5.93364
G1 X126.87 Y112.26 E5.96433
G1 X126.908 Y112.313 E5.96954
G1 X127.135 Y112.694 E6.00494
G1 X127.217 Y112.866 E6.02015
G1 X127.297 Y113.053 E6.03639
G1 X127.359 Y113.213 E6.05008
G1 X127.474 Y113.605 E6.08269
G1 X127.518 Y113.846 E6.10225
G1 X127.538 Y114 E6.11465
G1 X127.565 Y114.319 E6.1402
G1 X127.572 Y114.503 E6.1549
G1 X127.569 Y121.939 E6.74847
G1 X127.556 Y122.19 E6.76854
G1 X127.424 Y123.658 E6.88619
G1 X127.386 Y123.928 E6.90796
G1 X127.324 Y124.241 E6.93343
G1 X127.261 Y124.492 E6.95408
G1 X126.886 Y125.709 E7.05574
G1 X126.793 Y125.963 E7.07733
G1 X126.678 Y126.237 E7.10105
G1 X126.571 Y126.459 E7.12072
G1 X125.952 Y127.598 E7.2242
G1 X125.833 Y127.792 E7.24237
G1 X125.644 Y128.071 E7.26927
G1 X125.525 Y128.229 E7.28506
G1 X124.659 Y129.27 E7.39315
G1 X124.484 Y129.458 E7.41365
G1 X124.264 Y129.673 E7.4382
G1 X124.071 Y129.843 E7.45874
G1 X123.049 Y130.656 E7.56298
G1 X122.845 Y130.803 E7.58305
G1 X122.559 Y130.986 E7.61015
G1 X122.39 Y131.084 E7.62575
G1 X121.315 Y131.631 E7.72203
G1 X121.166 Y131.7 E7.73514
G1 X120.804 Y131.847 E7.76633
G1 X119.895 Y132.161 E7.84309
G1 X119.719 Y132.215 E7.85779
G1 X119.328 Y132.313 E7.88997
G1 X118.42 Y132.479 E7.96365
G1 X118.057 Y132.52 E7.99281
G1 X116.97 Y132.579 E8.0797
G1 X92.893 Y132.574 E10.00163
G1 X91.95 Y132.52 E10.07703
G1 X91.795 Y132.506 E10.08946
G1 X91.593 Y132.481 E10.1057
G1 X91.442 Y132.457 E10.11791
G1 X90.531 Y132.282 E10.19196
G1 X90.334 Y132.233 E10.20816
G1 X90.185 Y132.19 E10.22054
G1 X89.435 Y131.951 E10.28338
G1 X89.28 Y131.896 E10.2965
G1 X89.042 Y131.799 E10.31702
G1 X88.851 Y131.712 E10.33377
G1 X87.619 Y131.089 E10.44398
G1 X87.445 Y130.989 E10.46
G1 X87.145 Y130.798 E10.48838
G1 X86.981 Y130.68 E10.50451
G1 X85.905 Y129.828 E10.61407
G1 X85.737 Y129.678 E10.63205
G1 X85.498 Y129.444 E10.65875
G1 X85.352 Y129.287 E10.67586
G1 X84.534 Y128.312 E10.77745
G1 X84.398 Y128.134 E10.79533
G1 X84.224 Y127.879 E10.81998
G1 X84.104 Y127.687 E10.83805
G1 X83.459 Y126.521 E10.94442
G1 X83.354 Y126.309 E10.9633
G1 X83.233 Y126.031 E10.9875
G1 X83.144 Y125.792 E11.00786
G1 X82.766 Y124.604 E11.10738
G1 X82.701 Y124.36 E11.12753
G1 X82.642 Y124.086 E11.14991
G1 X82.599 Y123.832 E11.17047
G1 X82.445 Y122.48 E11.27909
G1 X82.431 Y122.177 E11.3033
G1 X82.433 Y114.439 E11.92098
G1 X82.462 Y114.051 E11.95204
G1 X82.491 Y113.87 E11.96667
G1 X82.521 Y113.721 E11.97881
G1 X82.621 Y113.372 E12.00779
G1 X82.684 Y113.207 E12.02189
G1 X82.768 Y113.01 E12.03898
G1 X82.849 Y112.841 E12.05394
G1 X82.94 Y112.671 E12.06933
G1 X83.027 Y112.522 E12.08311
G1 X83.234 Y112.227 E12.11187
G1 X83.284 Y112.167 E12.11811
G1 X83.511 Y111.93 E12.1443
G1 X83.651 Y111.803 E12.15939
G1 X84.118 Y111.323 E12.21285
G1 X84.529 Y110.777 E12.2674
G1 X84.868 Y110.184 E12.32193
G1 X85.128 Y109.554 E12.37633
G1 X85.309 Y108.895 E12.43088
G1 X85.402 Y108.224 E12.48496
G1 X85.418 Y107.816 E12.51755
G1 X85.419 Y102.277 E12.9597
G1 X85.377 Y101.609 E13.01312
G1 X85.248 Y100.938 E13.06767
G1 X85.036 Y100.289 E13.12217
G1 X84.743 Y99.672 E13.17669
G1 X84.375 Y99.097 E13.23118
G1 X83.941 Y98.576 E13.28531
G1 X83.675 Y98.316 E13.315
G1 X83.5 Y98.154 E13.33404
G1 X83.379 Y98.033 E13.3477
G1 X83.13 Y97.74 E13.37839
G1 X83.09 Y97.684 E13.38389
G1 X82.897 Y97.368 E13.41344
G1 X82.776 Y97.118 E13.43561
G1 X82.703 Y96.947 E13.45046
G1 X82.639 Y96.782 E13.46458
G1 X82.526 Y96.395 E13.49676
G1 X82.482 Y96.155 E13.51624
G1 X82.462 Y95.996 E13.52903
G1 X82.435 Y95.68 E13.55435
G1 X82.428 Y95.495 E13.56913
G1 X82.431 Y88.062 E14.16246
G1 X82.444 Y87.81 E14.1826
G1 X82.576 Y86.342 E14.30026
G1 X82.615 Y86.066 E14.32251
G1 X82.676 Y85.759 E14.3475
G1 X82.744 Y85.489 E14.36972
G1 X83.114 Y84.291 E14.46981
G1 X83.207 Y84.036 E14.49147
G1 X83.322 Y83.763 E14.51512
G1 X83.431 Y83.537 E14.53515
G1 X84.048 Y82.402 E14.63827
G1 X84.168 Y82.206 E14.65662
G1 X84.355 Y81.93 E14.68323
G1 X84.481 Y81.764 E14.69986
G1 X85.341 Y80.73 E14.80722
G1 X85.519 Y80.538 E14.82812
M204 S3000
M205 X10 Y10
G0 F6000 X84.8 Y81.38
M204 S1800
M205 X8 Y8
G1 F1125 X84.8 Y99.792 E16.29785
M204 S3000
M205 X10 Y10
G0 F6000 X83.2 Y97.822
M204 S1800
M205 X8 Y8
G1 F1125 X83.2 Y84.055 E17.39679
M204 S3000
M205 X10 Y10
G0 F6000 X86.4 Y79.781
M204 S1800
M205 X8 Y8
G1 F1125 X86.4 Y130.219 E21.42297
M204 S3000
M205 X10 Y10
G0 F6000 X88 Y131.281
M204 S1800
M205 X8 Y8
G1 F1125 X88 Y78.717 E25.61885
M204 S3000
M205 X10 Y10
G0 F6000 X89.6 Y78.013
M204 S1800
M205 X8 Y8
G1 F1125 X89.6 Y132.003 E29.92857
M204 S3000
M205 X10 Y10
G0 F6000 X91.2 Y132.41
M204 S1800
M205 X8 Y8
G1 F1125 X91.2 Y77.59 E34.30454
M204 S3000
M205 X10 Y10
G0 F6000 X92.8 Y77.433
M204 S1800
M205 X8 Y8
G1 F1125 X92.8 Y132.568 E38.70565
M204 S3000
M205 X10 Y10
G0 F6000 X94.4 Y132.574
M204 S1800
M205 X8 Y8
G1 F1125 X94.4 Y77.422 E43.10812
M204 S3000
M205 X10 Y10
G0 F6000 X96 Y77.422
M204 S1800
M205 X8 Y8
G1 F1125 X96 Y132.574 E47.51059
M204 S3000
M205 X10 Y10
G0 F6000 X97.6 Y132.574
M204 S1800
M205 X8 Y8
G1 F1125 X97.6 Y77.423 E51.91298
M204 S3000
M205 X10 Y10
G0 F6000 X99.2 Y77.423
M204 S1800
M205 X8 Y8
G1 F1125 X99.2 Y132.575 E56.31546
M204 S3000
M205 X10 Y10
G0 F6000 X100.8 Y132.575
M204 S1800
M205 X8 Y8
G1 F1125 X100.8 Y77.423 E60.71793
M204 S3000
M205 X10 Y10
G0 F6000 X102.4 Y77.424
M204 S1800
M205 X8 Y8
G1 F1125 X102.4 Y132.575 E65.12032
M204 S3000
M205 X10 Y10
G0 F6000 X104 Y132.576
M204 S1800
M205 X8 Y8
G1 F1125 X104 Y77.424 E69.52279
M204 S3000
M205 X10 Y10
G0 F6000 X105.6 Y77.425
M204 S1800
M205 X8 Y8
G1 F1125 X105.6 Y132.576 E73.92518
M204 S3000
M205 X10 Y10
G0 F6000 X107.2 Y132.576
M204 S1800
M205 X8 Y8
G1 F1125 X107.2 Y77.425 E78.32757
M204 S3000
M205 X10 Y10
G0 F6000 X108.8 Y77.425
M204 S1800
M205 X8 Y8
G1 F1125 X108.8 Y132.577 E82.73004
M204 S3000
M205 X10 Y10
G0 F6000 X110.4 Y132.577
M204 S1800
M205 X8 Y8
G1 F1125 X110.4 Y77.426 E87.13243
M204 S3000
M205 X10 Y10
G0 F6000 X112 Y77.426
M204 S1800
M205 X8 Y8
G1 F1125 X112 Y132.577 E91.53483
M204 S3000
M205 X10 Y10
G0 F6000 X113.6 Y132.578
M204 S1800
M205 X8 Y8
G1 F1125 X113.6 Y77.427 E95.93722
M204 S3000
M205 X10 Y10
G0 F6000 X115.2 Y77.427
M204 S1800
M205 X8 Y8
G1 F1125 X115.2 Y132.578 E100.33961
M204 S3000
M205 X10 Y10
G0 F6000 X116.8 Y132.578
M204 S1800
M205 X8 Y8
G1 F1125 X116.8 Y77.427 E104.742
M204 S3000
M205 X10 Y10
G0 F6000 X118.4 Y77.521
M204 S1800
M205 X8 Y8
G1 F1125 X118.4 Y132.482 E109.12922
M204 S3000
M205 X10 Y10
G0 F6000 X120 Y132.125
M204 S1800
M205 X8 Y8
G1 F1125 X120 Y77.869 E113.46017
M204 S3000
M205 X10 Y10
G0 F6000 X121.6 Y78.517
M204 S1800
M205 X8 Y8
G1 F1125 X121.6 Y131.486 E117.68839
M204 S3000
M205 X10 Y10
G0 F6000 X123.2 Y130.536
M204 S1800
M205 X8 Y8
G1 F1125 X123.2 Y79.463 E121.76525
M204 S3000
M205 X10 Y10
G0 F6000 X124.8 Y80.895
M204 S1800
M205 X8 Y8
G1 F1125 X124.8 Y100.709 E123.34689
M204 S3000
M205 X10 Y10
G0 F6000 X126.4 Y98.151
M204 S1800
M205 X8 Y8
G1 F1125 X126.4 Y83.223 E124.53851
M204 S3000
M205 X10 Y10
G0 F6000 X125.043 Y102.196
G0 X124.8 Y109.209
M204 S1800
M205 X8 Y8
G1 F1125 X124.8 Y129.101 E126.12638
M204 S3000
M205 X10 Y10
G0 F6000 X126.4 Y126.774
M204 S1800
M205 X8 Y8
G1 F1125 X126.4 Y111.754 E127.32534
M204 S3000
M205 X10 Y10
G0 F6000 X84.8 Y110.302
M204 S1800
M205 X8 Y8
G1 F1125 X84.8 Y128.629 E128.78828
M204 S3000
M205 X10 Y10
G0 F6000 X83.2 Y125.942
M204 S1800
M205 X8 Y8
G1 F1125 X83.2 Y112.275 E129.87924
M204 S3000
M205 X10 Y10
G0 F600 X83.2 Y112.275 Z0.54
G0 F6000 X84.456 Y109.975
G0 X84.856 Y108.806
G0 X84.957 Y107.804
G0 X84.918 Y101.66
G0 X84.608 Y100.459
G0 X82.638 Y96.78
;TIME_ELAPSED:92.653931
;LAYER:-5
M140 S60
M204 S1800
M205 X8 Y8
;TYPE:SUPPORT
G1 F1125 X82.526 Y96.394 E129.91934
G1 X82.481 Y96.154 E129.94371
G1 X82.462 Y95.994 E129.95978
G1 X82.435 Y95.679 E129.99133
G1 X82.428 Y95.494 E130.0098
G1 X82.428 Y95.156 E130.04353
G1 X119.532 Y132.26 E135.2793
G1 X119.718 Y132.214 E135.29842
G1 X119.894 Y132.16 E135.31679
G1 X120.602 Y131.915 E135.39154
G1 X82.428 Y93.741 E140.77831
G1 X82.428 Y92.328 E140.9193
G1 X121.589 Y131.489 E146.44534
G1 X122.39 Y131.083 E146.53494
G1 X122.521 Y131.006 E146.55011
G1 X82.429 Y90.914 E152.20752
G1 X82.43 Y89.501 E152.34851
G1 X123.346 Y130.418 E158.12227
G1 X124.071 Y129.842 E158.21466
G1 X124.131 Y129.788 E158.22272
G1 X82.43 Y88.087 E164.10718
G1 X82.43 Y88.06 E164.10987
G1 X82.443 Y87.809 E164.13495
G1 X82.536 Y86.778 E164.23824
G1 X124.826 Y129.068 E170.20582
G1 X125.469 Y128.297 E170.30599
G1 X82.726 Y85.554 E176.33749
G1 X82.743 Y85.488 E176.34429
G1 X83.057 Y84.471 E176.45049
G1 X126.033 Y127.447 E182.51487
G1 X126.531 Y126.531 E182.6189
G1 X83.468 Y83.468 E188.69556
G1 X83.965 Y82.551 E188.79963
G1 X126.941 Y125.527 E194.86401
G1 X127.26 Y124.492 E194.97208
G1 X127.272 Y124.444 E194.97701
G1 X84.53 Y81.701 E201.00844
G1 X85.172 Y80.929 E201.10863
G1 X127.463 Y123.22 E207.07635
G1 X127.555 Y122.19 E207.17953
G1 X127.568 Y121.938 E207.20471
G1 X127.569 Y121.912 E207.2073
G1 X85.867 Y80.21 E213.09191
G1 X85.931 Y80.154 E213.10039
G1 X86.652 Y79.581 E213.19228
G1 X127.569 Y120.498 E218.96612
G1 X127.569 Y119.084 E219.1072
G1 X87.478 Y78.993 E224.76448
G1 X87.609 Y78.915 E224.77969
G1 X88.409 Y78.51 E224.86916
G1 X127.57 Y117.671 E230.3952
G1 X127.571 Y116.257 E230.53629
G1 X89.397 Y78.083 E235.92305
G1 X90.107 Y77.837 E235.99803
G1 X90.272 Y77.788 E236.01521
G1 X90.467 Y77.739 E236.03527
G1 X127.571 Y114.843 E241.27104
G1 X127.571 Y114.502 E241.30507
G1 X127.564 Y114.318 E241.32344
G1 X127.537 Y114 E241.35528
G1 X127.517 Y113.846 E241.37078
G1 X127.472 Y113.605 E241.39524
G1 X127.359 Y113.217 E241.43557
G1 X91.655 Y77.513 E246.47379
G1 X91.942 Y77.48 E246.50261
G1 X92.98 Y77.423 E246.60634
G1 X124.816 Y109.26 E251.09881
G1 X124.751 Y109.062 E251.11961
G1 X124.621 Y108.39 E251.1879
G1 X124.58 Y107.722 E251.25468
G1 X124.58 Y107.61 E251.26586
G1 X94.392 Y77.421 E255.52578
G1 X95.806 Y77.421 E255.66687
G1 X124.58 Y106.196 E259.72726
G1 X124.58 Y104.781 E259.86845
G1 X97.221 Y77.422 E263.7291
G1 X98.635 Y77.422 E263.87019
G1 X124.58 Y103.367 E267.53131
G1 X124.58 Y102.184 E267.64935
G1 X124.59 Y101.962 E267.67153
G1 X100.05 Y77.423 E271.13431
G1 X101.464 Y77.423 E271.2754
G1 X124.788 Y100.747 E274.56667
G1 X124.87 Y100.445 E274.5979
G1 X125.131 Y99.815 E274.66594
G1 X125.182 Y99.726 E274.67617
G1 X102.879 Y77.423 E277.82337
G1 X104.294 Y77.423 E277.96456
G1 X125.738 Y98.868 E280.99061
G1 X125.881 Y98.677 E281.01442
G1 X126.347 Y98.196 E281.08124
G1 X126.417 Y98.132 E281.0907
G1 X105.708 Y77.424 E284.0129
G1 X107.123 Y77.424 E284.15409
G1 X127.047 Y97.348 E286.96558
G1 X127.058 Y97.329 E286.96777
G1 X127.15 Y97.159 E286.98706
G1 X127.232 Y96.986 E287.00616
G1 X127.315 Y96.792 E287.02721
G1 X127.378 Y96.627 E287.04484
G1 X127.458 Y96.346 E287.07399
G1 X108.538 Y77.425 E289.74388
G1 X109.952 Y77.425 E289.88497
G1 X127.567 Y95.04 E292.37063
G1 X127.567 Y93.625 E292.51182
G1 X111.367 Y77.426 E294.79775
G1 X112.781 Y77.426 E294.93884
G1 X127.567 Y92.212 E297.0253
G1 X127.567 Y90.798 E297.16639
G1 X114.196 Y77.426 E299.05325
G1 X115.61 Y77.426 E299.19434
G1 X127.568 Y89.384 E300.88175
G1 X127.568 Y87.97 E301.02284
G1 X117.024 Y77.426 E302.51071
G1 X117.125 Y77.426 E302.52079
G1 X118.168 Y77.489 E302.62505
G1 X118.526 Y77.537 E302.66109
G1 X118.554 Y77.542 E302.66392
G1 X127.429 Y86.416 E303.91621
G1 X127.4 Y86.168 E303.94113
G1 X127.357 Y85.91 E303.96723
G1 X127.293 Y85.616 E303.99725
G1 X127.235 Y85.4 E304.01956
G1 X126.958 Y84.532 E304.11048
G1 X120.433 Y78.007 E305.03122
G1 X120.547 Y78.043 E305.04315
G1 X120.747 Y78.114 E305.06433
G1 X120.968 Y78.205 E305.08818
G1 X121.149 Y78.288 E305.10805
G1 X122.373 Y78.908 E305.24495
G1 X122.555 Y79.012 E305.26587
G1 X122.854 Y79.203 E305.30127
G1 X123.024 Y79.323 E305.32203
G1 X123.699 Y79.859 E305.40804
G1 X125.133 Y81.292 E305.61032
M204 S3000
M205 X10 Y10
G0 F6000 X124.647 Y80.713
M204 S1800
M205 X8 Y8
G1 F1125 X124.5 Y80.555 E305.63185
G1 X124.255 Y80.316 E305.666
G1 X124.108 Y80.183 E305.68578
G1 X123.699 Y79.859 E305.73785
M204 S3000
M205 X10 Y10
G0 F6000 X82.638 Y96.78
M204 S1800
M205 X8 Y8
G1 F1125 X118.344 Y132.486 E310.77635
G1 X118.057 Y132.518 E310.80516
G1 X117.019 Y132.575 E310.90889
G1 X85.183 Y100.739 E315.4013
G1 X85.248 Y100.937 E315.42209
G1 X85.377 Y101.608 E315.49027
G1 X85.419 Y102.276 E315.55705
G1 X85.418 Y102.389 E315.56833
G1 X115.607 Y132.577 E319.82825
G1 X114.192 Y132.577 E319.96944
G1 X85.418 Y103.803 E324.02976
G1 X85.418 Y105.217 E324.17085
G1 X112.777 Y132.576 E328.0315
G1 X111.363 Y132.576 E328.17259
G1 X85.418 Y106.631 E331.83371
G1 X85.418 Y107.815 E331.95185
G1 X85.409 Y108.036 E331.97392
G1 X109.948 Y132.576 E335.43671
G1 X108.534 Y132.576 E335.5778
G1 X85.209 Y109.251 E338.86921
G1 X85.127 Y109.552 E338.90034
G1 X84.867 Y110.183 E338.96843
G1 X84.816 Y110.272 E338.97867
G1 X107.12 Y132.576 E342.12601
G1 X105.705 Y132.575 E342.26719
G1 X84.26 Y111.131 E345.29325
G1 X84.118 Y111.321 E345.31691
G1 X83.65 Y111.802 E345.38388
G1 X83.581 Y111.865 E345.3932
G1 X104.291 Y132.575 E348.3156
G1 X102.876 Y132.574 E348.45679
G1 X82.951 Y112.649 E351.26843
G1 X82.94 Y112.669 E351.2707
