;FLAVOR:Marlin
;TIME:4247
;Filament used: 3.65102m
;Layer height: 0.2
;MINX:82.199
;MINY:85.199
;MINZ:0.24
;MAXX:127.799
;MAXY:144.801
;MAXZ:19.49
;Generated with Cura_SteamEngine 4.4.1
M140 S60
M105
M190 S60
M104 S200
M105
M109 S200
M82 ;absolute extrusion mode
G21 ;metric values
G90 ;absolute positioning
M82 ;set extruder to absolute mode
M107 ;start with the fan off
G28 X0 Y0 ;move X/Y to min endstops
G28 Z0 ;move Z to min endstops
G1 Z15.0 F100 ;move the platform down 15mm
G92 E0 ;zero the extruded length
G1 F200 E3 ;extrude 3mm of feed stock
G92 E0 ;zero the extruded length again
G1 F100
G0 Y20 F100
M117 Printing...
G5
G92 E0
G92 E0
G1 F2400 E-6
;LAYER_COUNT:93
;LAYER:-6
M107
M204 S3000
M205 X10 Y10
G0 F6000 X97.037 Y86.412 Z0.24
M204 S1800
M205 X8 Y8
;TYPE:SUPPORT-INTERFACE
G1 F2400 E0
G1 F1125 X97.207 Y86.227 E0.02006
G1 X97.335 Y86.109 E0.03395
G1 X97.445 Y86.015 E0.0455
G1 X97.791 Y85.771 E0.0793
G1 X98.175 Y85.584 E0.11339
G1 X98.531 Y85.475 E0.14311
G1 X98.603 Y85.46 E0.14898
G1 X98.949 Y85.411 E0.17688
G1 X99.04 Y85.405 E0.18416
G1 X99.201 Y85.4 E0.19702
G1 X110.77 Y85.4 E1.1205
G1 X110.989 Y85.409 E1.138
G1 X111.133 Y85.421 E1.14953
G1 X111.553 Y85.495 E1.18358
G1 X111.899 Y85.611 E1.21271
G1 X111.948 Y85.633 E1.21699
G1 X112.28 Y85.809 E1.24699
G1 X112.331 Y85.843 E1.25188
G1 X112.617 Y86.058 E1.28044
G1 X112.788 Y86.214 E1.29892
G1 X112.906 Y86.342 E1.31282
G1 X113 Y86.452 E1.32437
G1 X113.244 Y86.798 E1.35816
G1 X113.431 Y87.182 E1.39226
G1 X113.541 Y87.542 E1.42231
G1 X113.557 Y87.616 E1.42835
G1 X113.602 Y87.938 E1.4543
G1 X113.61 Y88.052 E1.46342
G1 X113.615 Y88.21 E1.47604
G1 X113.609 Y90.545 E1.66243
G1 X113.601 Y90.737 E1.67777
G1 X113.533 Y91.551 E1.74298
G1 X113.553 Y91.551 E1.74457
G1 X113.559 Y92.026 E1.78249
G1 X113.656 Y92.697 E1.83661
G1 X113.761 Y93.121 E1.87148
G1 X113.838 Y93.521 E1.90399
G1 X113.86 Y93.742 E1.92172
G1 X113.897 Y94.482 E1.98087
G1 X113.903 Y94.482 E1.98135
G1 X113.913 Y94.649 E1.9947
G1 X114.042 Y95.319 E2.04917
G1 X114.255 Y95.969 E2.10377
G1 X114.588 Y96.657 E2.16478
G1 X114.647 Y96.766 E2.17467
G1 X114.783 Y97.134 E2.20599
G1 X114.863 Y97.549 E2.23973
G1 X114.883 Y97.751 E2.25593
G1 X114.895 Y97.995 E2.27543
G1 X114.896 Y112.03 E3.39577
G1 X114.888 Y112.241 E3.41262
G1 X114.875 Y112.396 E3.42504
G1 X114.802 Y112.81 E3.45859
G1 X114.668 Y113.199 E3.49144
G1 X114.503 Y113.507 E3.51933
G1 X114.225 Y114.118 E3.57291
G1 X114.022 Y114.77 E3.62742
G1 X113.904 Y115.441 E3.68181
G1 X113.863 Y116.262 E3.74742
G1 X113.85 Y116.414 E3.7596
G1 X113.789 Y116.787 E3.78977
G1 X113.634 Y117.404 E3.84055
G1 X113.641 Y117.406 E3.84113
G1 X113.558 Y118.039 E3.8921
G1 X113.57 Y118.912 E3.96179
G1 X113.601 Y119.231 E3.98737
G1 X113.614 Y119.491 E4.00815
G1 X113.615 Y120.012 E4.04974
G1 X113.658 Y120.68 E4.10317
G1 X113.788 Y121.351 E4.15773
G1 X114.002 Y122 E4.21228
G1 X114.295 Y122.616 E4.26673
G1 X114.664 Y123.19 E4.3212
G1 X115.103 Y123.714 E4.37577
G1 X115.604 Y124.178 E4.43028
G1 X116.159 Y124.575 E4.48475
G1 X116.761 Y124.898 E4.53928
G1 X117.398 Y125.144 E4.59379
G1 X118.066 Y125.308 E4.6487
G1 X118.997 Y125.391 E4.72331
G1 X124.755 Y125.391 E5.18294
G1 X124.974 Y125.4 E5.20043
G1 X125.118 Y125.412 E5.21197
G1 X125.538 Y125.486 E5.24601
G1 X125.884 Y125.602 E5.27514
G1 X125.933 Y125.624 E5.27943
G1 X126.265 Y125.8 E5.30942
G1 X126.316 Y125.834 E5.31432
G1 X126.602 Y126.049 E5.34288
G1 X126.773 Y126.205 E5.36135
G1 X126.891 Y126.333 E5.37525
G1 X126.985 Y126.443 E5.3868
G1 X127.229 Y126.789 E5.4206
G1 X127.416 Y127.173 E5.45469
G1 X127.525 Y127.528 E5.48433
G1 X127.54 Y127.601 E5.49028
G1 X127.589 Y127.947 E5.51818
G1 X127.6 Y128.187 E5.53736
G1 X127.6 Y129.729 E5.66044
G1 X127.57 Y130.464 E5.71916
G1 X127.592 Y130.464 E5.72092
G1 X127.6 Y130.807 E5.74831
G1 X127.6 Y139.14 E6.41348
G1 X127.587 Y139.458 E6.43889
G1 X127.59 Y139.947 E6.47792
G1 X127.6 Y140.216 E6.49941
G1 X127.6 Y141.756 E6.62234
G1 X127.592 Y141.967 E6.6392
G1 X127.579 Y142.119 E6.65137
G1 X127.508 Y142.532 E6.68483
G1 X127.389 Y142.885 E6.71456
G1 X127.367 Y142.934 E6.71885
G1 X127.191 Y143.266 E6.74884
G1 X127.157 Y143.317 E6.75374
G1 X126.947 Y143.597 E6.78168
G1 X126.787 Y143.773 E6.80066
G1 X126.671 Y143.88 E6.81326
G1 X126.541 Y143.991 E6.8269
G1 X126.202 Y144.23 E6.86001
G1 X125.818 Y144.417 E6.89411
G1 X125.462 Y144.526 E6.92383
G1 X125.39 Y144.541 E6.9297
G1 X125.044 Y144.59 E6.95759
G1 X124.953 Y144.596 E6.96487
G1 X124.792 Y144.601 E6.97773
G1 X85.245 Y144.601 E10.13454
G1 X85.026 Y144.592 E10.15204
G1 X84.882 Y144.58 E10.16357
G1 X84.462 Y144.506 E10.19762
G1 X84.116 Y144.39 E10.22675
G1 X84.067 Y144.368 E10.23103
G1 X83.735 Y144.192 E10.26103
G1 X83.682 Y144.157 E10.2661
G1 X83.405 Y143.949 E10.29375
G1 X83.229 Y143.789 E10.31274
G1 X83.109 Y143.659 E10.32686
G1 X83.011 Y143.544 E10.33892
G1 X82.771 Y143.203 E10.37221
G1 X82.584 Y142.819 E10.4063
G1 X82.475 Y142.463 E10.43602
G1 X82.459 Y142.39 E10.44199
G1 X82.411 Y142.044 E10.46987
G1 X82.4 Y141.805 E10.48897
G1 X82.4 Y140.265 E10.6119
G1 X82.43 Y139.536 E10.67014
G1 X82.408 Y139.536 E10.67189
G1 X82.4 Y139.193 E10.69928
G1 X82.4 Y130.861 E11.36438
G1 X82.413 Y130.544 E11.3897
G1 X82.41 Y130.055 E11.42874
G1 X82.4 Y129.787 E11.45015
G1 X82.4 Y128.237 E11.57387
G1 X82.408 Y128.026 E11.59073
G1 X82.421 Y127.874 E11.60291
G1 X82.495 Y127.454 E11.63695
G1 X82.611 Y127.108 E11.66608
G1 X82.633 Y127.059 E11.67037
G1 X82.809 Y126.727 E11.70036
G1 X82.843 Y126.676 E11.70525
G1 X83.058 Y126.39 E11.73382
G1 X83.203 Y126.23 E11.75105
G1 X83.452 Y126.007 E11.77773
G1 X83.798 Y125.763 E11.81153
G1 X84.182 Y125.576 E11.84562
G1 X84.538 Y125.467 E11.87534
G1 X84.61 Y125.452 E11.88122
G1 X84.956 Y125.403 E11.90911
G1 X85.047 Y125.397 E11.91639
G1 X85.208 Y125.392 E11.92925
G1 X91 Y125.392 E12.39159
G1 X91.668 Y125.35 E12.44502
G1 X92.339 Y125.221 E12.49956
G1 X92.988 Y125.008 E12.55409
G1 X93.605 Y124.716 E12.60857
G1 X94.18 Y124.348 E12.66307
G1 X94.704 Y123.91 E12.71758
G1 X95.168 Y123.41 E12.77203
G1 X95.567 Y122.854 E12.82666
G1 X95.891 Y122.254 E12.88109
G1 X96.137 Y121.618 E12.93553
G1 X96.303 Y120.95 E12.99047
G1 X96.387 Y120.041 E13.06334
G1 X96.39 Y119.453 E13.11028
G1 X96.4 Y119.244 E13.12698
G1 X96.471 Y118.44 E13.19141
G1 X96.444 Y118.44 E13.19357
G1 X96.447 Y118.09 E13.2215
G1 X96.366 Y117.414 E13.27585
G1 X96.243 Y116.89 E13.31882
G1 X96.162 Y116.473 E13.35273
G1 X96.14 Y116.254 E13.3703
G1 X96.102 Y115.511 E13.42968
G1 X96.096 Y115.511 E13.43016
G1 X96.087 Y115.36 E13.44224
G1 X95.958 Y114.69 E13.4967
G1 X95.745 Y114.039 E13.55138
G1 X95.402 Y113.334 E13.61396
G1 X95.368 Y113.275 E13.6194
G1 X95.218 Y112.88 E13.65312
G1 X95.139 Y112.468 E13.68661
G1 X95.116 Y112.24 E13.7049
G1 X95.105 Y112.036 E13.72121
G1 X95.104 Y97.97 E14.84402
G1 X95.112 Y97.759 E14.86087
G1 X95.125 Y97.607 E14.87305
G1 X95.199 Y97.187 E14.90709
G1 X95.332 Y96.801 E14.93968
G1 X95.497 Y96.493 E14.96758
G1 X95.775 Y95.882 E15.02116
G1 X95.978 Y95.23 E15.07567
G1 X96.096 Y94.559 E15.13005
G1 X96.137 Y93.738 E15.19567
G1 X96.15 Y93.586 E15.20785
G1 X96.211 Y93.213 E15.23802
G1 X96.366 Y92.596 E15.2888
G1 X96.359 Y92.594 E15.28938
G1 X96.442 Y91.961 E15.34034
G1 X96.43 Y91.082 E15.41052
G1 X96.398 Y90.761 E15.43627
G1 X96.386 Y90.515 E15.45593
G1 X96.384 Y88.255 E15.63633
G1 X96.393 Y88.029 E15.65438
G1 X96.405 Y87.89 E15.66552
G1 X96.474 Y87.485 E15.69832
G1 X96.611 Y87.088 E15.73184
G1 X96.792 Y86.747 E15.76266
G1 X96.832 Y86.684 E15.76861
G1 X97.037 Y86.412 E15.7958
M204 S3000
M205 X10 Y10
G0 F6000 X97.6 Y85.905
M204 S1800
M205 X8 Y8
G1 F1125 X97.6 Y144.601 E20.48117
M204 S3000
M205 X10 Y10
G0 F6000 X96 Y144.601
M204 S1800
M205 X8 Y8
G1 F1125 X96 Y121.972 E22.28751
M204 S3000
M205 X10 Y10
G0 F6000 X94.4 Y124.164
M204 S1800
M205 X8 Y8
G1 F1125 X94.4 Y144.601 E23.91888
M204 S3000
M205 X10 Y10
G0 F6000 X92.8 Y144.601
M204 S1800
M205 X8 Y8
G1 F1125 X92.8 Y125.069 E25.47801
M204 S3000
M205 X10 Y10
G0 F6000 X91.2 Y125.379
M204 S1800
M205 X8 Y8
G1 F1125 X91.2 Y144.601 E27.0124
M204 S3000
M205 X10 Y10
G0 F6000 X89.6 Y144.601
M204 S1800
M205 X8 Y8
G1 F1125 X89.6 Y125.392 E28.54574
M204 S3000
M205 X10 Y10
G0 F6000 X88 Y125.392
M204 S1800
M205 X8 Y8
G1 F1125 X88 Y144.601 E30.07909
M204 S3000
M205 X10 Y10
G0 F6000 X86.4 Y144.601
M204 S1800
M205 X8 Y8
G1 F1125 X86.4 Y125.392 E31.61243
M204 S3000
M205 X10 Y10
G0 F6000 X84.8 Y125.425
M204 S1800
M205 X8 Y8
G1 F1125 X84.8 Y144.565 E33.14027
M204 S3000
M205 X10 Y10
G0 F6000 X83.2 Y143.757
M204 S1800
M205 X8 Y8
G1 F1125 X83.2 Y126.233 E34.53911
M204 S3000
M205 X10 Y10
G0 F6000 X92.223 Y124.774
G0 X93.381 Y124.312
G0 X94.388 Y123.573
G0 X95.175 Y122.611
G0 X95.697 Y121.48
G0 X95.959 Y118.636
G0 X96 Y114.908
M204 S1800
M205 X8 Y8
G1 F1125 X96 Y95.104 E36.11995
M204 S3000
M205 X10 Y10
G0 F6000 X99.2 Y85.4
M204 S1800
M205 X8 Y8
G1 F1125 X99.2 Y144.601 E40.84563
M204 S3000
M205 X10 Y10
G0 F6000 X100.8 Y144.601
M204 S1800
M205 X8 Y8
G1 F1125 X100.8 Y85.4 E45.57131
M204 S3000
M205 X10 Y10
G0 F6000 X102.4 Y85.4
M204 S1800
M205 X8 Y8
G1 F1125 X102.4 Y144.601 E50.29699
M204 S3000
M205 X10 Y10
G0 F6000 X104 Y144.601
M204 S1800
M205 X8 Y8
G1 F1125 X104 Y85.4 E55.02267
M204 S3000
M205 X10 Y10
G0 F6000 X105.6 Y85.4
M204 S1800
M205 X8 Y8
G1 F1125 X105.6 Y144.601 E59.74835
M204 S3000
M205 X10 Y10
G0 F6000 X107.2 Y144.601
M204 S1800
M205 X8 Y8
G1 F1125 X107.2 Y85.4 E64.47403
M204 S3000
M205 X10 Y10
G0 F6000 X108.8 Y85.4
M204 S1800
M205 X8 Y8
G1 F1125 X108.8 Y144.601 E69.19971
M204 S3000
M205 X10 Y10
G0 F6000 X110.4 Y144.601
M204 S1800
M205 X8 Y8
G1 F1125 X110.4 Y85.4 E73.92539
M204 S3000
M205 X10 Y10
G0 F6000 X112 Y85.661
M204 S1800
M205 X8 Y8
G1 F1125 X112 Y144.601 E78.63024
M204 S3000
M205 X10 Y10
G0 F6000 X113.6 Y144.601
M204 S1800
M205 X8 Y8
G1 F1125 X113.6 Y119.221 E80.65618
M204 S3000
M205 X10 Y10
G0 F6000 X113.6 Y117.719
M204 S1800
M205 X8 Y8
G1 F1125 X113.6 Y92.31 E82.68443
M204 S3000
M205 X10 Y10
G0 F6000 X113.6 Y90.749
M204 S1800
M205 X8 Y8
G1 F1125 X113.6 Y87.924 E82.90994
M204 S3000
M205 X10 Y10
G0 F6000 X114.076 Y120
G0 X114.223 Y121.173
G0 X115.2 Y123.804
M204 S1800
M205 X8 Y8
G1 F1125 X115.2 Y144.601 E84.57004
M204 S3000
M205 X10 Y10
G0 F6000 X116.8 Y144.601
M204 S1800
M205 X8 Y8
G1 F1125 X116.8 Y124.914 E86.14155
M204 S3000
M205 X10 Y10
G0 F6000 X118.4 Y125.338
M204 S1800
M205 X8 Y8
G1 F1125 X118.4 Y144.601 E87.6792
M204 S3000
M205 X10 Y10
G0 F6000 X120 Y144.601
M204 S1800
M205 X8 Y8
G1 F1125 X120 Y125.391 E89.21263
M204 S3000
M205 X10 Y10
G0 F6000 X121.6 Y125.391
M204 S1800
M205 X8 Y8
G1 F1125 X121.6 Y144.601 E90.74605
M204 S3000
M205 X10 Y10
G0 F6000 X123.2 Y144.601
M204 S1800
M205 X8 Y8
G1 F1125 X123.2 Y125.391 E92.27948
M204 S3000
M205 X10 Y10
G0 F6000 X124.8 Y125.393
M204 S1800
M205 X8 Y8
G1 F1125 X124.8 Y144.601 E93.81274
M204 S3000
M205 X10 Y10
G0 F6000 X126.4 Y144.091
M204 S1800
M205 X8 Y8
G1 F1125 X126.4 Y125.898 E95.26499
M204 S3000
M205 X10 Y10
G0 F600 X126.4 Y125.898 Z0.54
G0 F6000 X127.414 Y127.173
;TIME_ELAPSED:69.390499
;LAYER:-5
M140 S60
M204 S1800
M205 X8 Y8
;TYPE:SUPPORT
G1 F1125 X127.228 Y126.788 E95.30765
G1 X126.984 Y126.442 E95.3499
G1 X126.89 Y126.333 E95.36426
G1 X126.772 Y126.205 E95.38163
G1 X126.601 Y126.048 E95.40479
G1 X126.314 Y125.833 E95.44057
G1 X126.263 Y125.799 E95.44669
G1 X125.932 Y125.623 E95.4841
G1 X125.883 Y125.601 E95.48945
G1 X125.536 Y125.485 E95.52596
G1 X125.475 Y125.475 E95.53213
G1 X127.523 Y127.523 E95.82112
M204 S3000
M205 X10 Y10
G0 F6000 X127.524 Y127.527
M204 S1800
M205 X8 Y8
G1 F1125 X127.539 Y127.6 E95.82856
G1 X127.588 Y127.946 E95.86343
G1 X127.599 Y128.186 E95.8874
G1 X127.6 Y129.014 E95.97002
G1 X123.976 Y125.39 E96.48141
G1 X122.562 Y125.39 E96.62249
G1 X127.572 Y130.401 E97.32953
G1 X127.569 Y130.463 E97.33572
G1 X127.592 Y130.463 E97.33802
G1 X127.6 Y130.806 E97.37225
G1 X127.6 Y131.842 E97.47563
G1 X121.147 Y125.39 E98.38614
G1 X119.733 Y125.39 E98.52723
G1 X127.6 Y133.257 E99.63735
G1 X127.6 Y134.671 E99.77844
G1 X118.253 Y125.324 E101.0974
G1 X118.066 Y125.307 E101.11614
G1 X117.398 Y125.143 E101.18477
G1 X116.761 Y124.896 E101.25294
G1 X116.158 Y124.574 E101.32115
G1 X115.913 Y124.399 E101.35119
G1 X127.6 Y136.085 E103.00029
G1 X127.6 Y137.499 E103.14137
G1 X95.103 Y105.003 E107.72698
G1 X95.103 Y106.417 E107.86807
G1 X127.6 Y138.913 E112.45368
G1 X127.599 Y139.139 E112.47623
G1 X127.586 Y139.457 E112.50799
G1 X127.59 Y139.946 E112.55678
G1 X127.6 Y140.215 E112.58364
G1 X127.6 Y140.328 E112.59491
G1 X95.103 Y107.831 E117.18059
G1 X95.103 Y109.245 E117.32168
G1 X127.6 Y141.742 E121.90736
G1 X127.6 Y141.755 E121.90866
G1 X127.591 Y141.965 E121.92963
G1 X127.579 Y142.118 E121.94494
G1 X127.508 Y142.531 E121.98676
G1 X127.388 Y142.884 E122.02396
G1 X127.37 Y142.926 E122.02852
G1 X95.103 Y110.66 E126.58167
G1 X95.104 Y112.035 E126.71887
G1 X95.106 Y112.077 E126.72306
G1 X126.794 Y143.764 E131.19451
G1 X126.787 Y143.771 E131.1955
G1 X126.671 Y143.879 E131.21131
G1 X126.541 Y143.99 E131.22837
G1 X126.202 Y144.229 E131.26976
G1 X125.961 Y144.345 E131.29645
G1 X95.789 Y114.174 E135.55397
G1 X95.957 Y114.689 E135.60802
G1 X96.086 Y115.359 E135.6761
G1 X96.095 Y115.51 E135.6912
G1 X96.101 Y115.51 E135.6918
G1 X96.122 Y115.921 E135.73286
G1 X124.8 Y144.599 E139.77963
G1 X124.791 Y144.6 E139.78054
G1 X123.387 Y144.6 E139.92063
G1 X96.388 Y117.601 E143.73048
G1 X96.447 Y118.088 E143.77943
G1 X96.443 Y118.438 E143.81435
G1 X96.471 Y118.439 E143.81715
G1 X96.416 Y119.044 E143.87777
G1 X121.973 Y144.6 E147.48406
G1 X120.558 Y144.6 E147.62525
G1 X96.353 Y120.395 E151.04084
G1 X96.302 Y120.949 E151.09635
G1 X96.141 Y121.597 E151.16298
G1 X119.144 Y144.6 E154.40895
G1 X117.73 Y144.6 E154.55004
G1 X95.712 Y122.582 E157.65701
G1 X95.566 Y122.852 E157.68764
G1 X95.167 Y123.409 E157.75601
G1 X95.146 Y123.431 E157.75904
G1 X116.316 Y144.6 E160.74629
G1 X114.902 Y144.6 E160.88738
G1 X94.435 Y124.134 E163.77542
G1 X94.18 Y124.346 E163.80851
G1 X93.605 Y124.715 E163.87668
M204 S3000
M205 X10 Y10
G0 F6000 X93.603 Y124.716
M204 S1800
M205 X8 Y8
G1 F1125 X113.487 Y144.6 E166.68253
G1 X112.073 Y144.6 E166.82362
G1 X92.606 Y125.133 E169.57062
G1 X92.338 Y125.22 E169.59874
G1 X91.667 Y125.348 E169.6669
G1 X91.423 Y125.364 E169.6913
G1 X110.659 Y144.6 E172.4057
G1 X109.245 Y144.6 E172.54679
G1 X90.035 Y125.391 E175.25746
G1 X88.621 Y125.391 E175.39855
G1 X107.83 Y144.6 E178.10915
G1 X106.416 Y144.6 E178.25024
G1 X87.207 Y125.391 E180.96083
G1 X85.793 Y125.391 E181.10192
G1 X105.002 Y144.6 E183.81252
G1 X103.588 Y144.6 E183.95361
G1 X84.473 Y125.485 E186.65094
G1 X84.182 Y125.575 E186.68134
G1 X83.798 Y125.762 E186.72395
G1 X83.526 Y125.953 E186.75712
G1 X102.174 Y144.6 E189.38848
G1 X100.759 Y144.6 E189.52967
G1 X82.839 Y126.68 E192.05838
G1 X82.809 Y126.726 E192.06386
G1 X82.633 Y127.057 E192.10126
G1 X82.61 Y127.107 E192.10675
G1 X82.495 Y127.453 E192.14313
G1 X82.45 Y127.705 E192.16868
G1 X99.345 Y144.6 E194.55274
G1 X97.931 Y144.6 E194.69383
G1 X82.399 Y129.068 E196.88557
G1 X82.399 Y129.785 E196.95711
G1 X82.409 Y130.054 E196.98397
G1 X82.412 Y130.495 E197.02797
G1 X96.517 Y144.6 E199.01834
G1 X95.103 Y144.6 E199.15943
G1 X82.399 Y131.897 E200.95203
G1 X82.399 Y133.311 E201.09312
G1 X93.688 Y144.6 E202.68612
G1 X92.274 Y144.6 E202.82721
G1 X82.399 Y134.725 E204.22068
G1 X82.399 Y136.139 E204.36177
G1 X90.86 Y144.6 E205.55571
G1 X89.446 Y144.6 E205.6968
G1 X82.399 Y137.554 E206.69113
G1 X82.399 Y138.968 E206.83222
G1 X88.031 Y144.6 E207.62696
G1 X86.617 Y144.6 E207.76805
G1 X82.399 Y140.382 E208.36325
G1 X82.399 Y141.796 E208.50434
G1 X85.201 Y144.598 E208.89974
G1 X85.026 Y144.591 E208.91721
G1 X84.882 Y144.579 E208.93163
G1 X84.461 Y144.505 E208.97428
G1 X84.116 Y144.389 E209.0106
G1 X84.066 Y144.367 E209.01605
G1 X83.734 Y144.191 E209.05354
G1 X83.681 Y144.156 E209.05988
G1 X83.404 Y143.948 E209.09445
G1 X83.228 Y143.788 E209.11818
G1 X83.109 Y143.658 E209.13576
G1 X83.01 Y143.543 E209.15091
G1 X82.771 Y143.201 E209.19254
G1 X82.583 Y142.817 E209.2352
G1 X82.475 Y142.462 E209.27222
G1 X82.459 Y142.389 E209.27968
G1 X82.411 Y142.042 E209.31463
G1 X82.399 Y141.803 E209.33851
M204 S3000
